dist/svg/camera.svg

<!-- Generated by Trend Micro Style Portal -->
<svg version="1.1" xmlns="http://www.w3.org/2000/svg" width="16" height="16" viewBox="0 0 16 16">
  <title>camera</title>
  <path fill="rgb(34,34,34)" d="M2.020 1l-2.020 6 4 1.030-0.32 0.97 1.32 0.33v3.66l-5-0.010v2l7 0.020v-5.16l0.64 0.16 0.36-1 4 1 1-3 3-2-13.98-4z"></path>
</svg>

<svg width="16" height="16" viewBox="0 0 16 16" fill="rgb(34, 34, 34)" xmlns="http://www.w3.org/2000/svg"><title>camera</title><path d="M2.02 1L0 7L4 8.03L3.68 9L5 9.33V12.99L0 12.98V14.98L7 15V9.84L7.64 10L8 9L12 10L13 7L16 5L2.02 1Z" fill="rgb(34, 34, 34)" fill-opacity="1.00"/></svg>
